chrome/icons/lens.svg

<svg width="16" height="16" viewBox="0 0 16 16" fill="none" xmlns="http://www.w3.org/2000/svg">
<g clip-path="url(#clip0_165_7)">
<path d="M1 5.5V3.9375C1 3.54688 1.07943 3.17317 1.23828 2.81641C1.39714 2.45964 1.61067 2.14714 1.87891 1.87891C2.14714 1.61067 2.45964 1.39714 2.81641 1.23828C3.17317 1.07943 3.54688 1 3.9375 1H5.5C5.63542 1 5.75261 1.04948 5.85156 1.14844C5.95052 1.2474 6 1.36458 6 1.5C6 1.63542 5.95052 1.75261 5.85156 1.85156C5.75261 1.95052 5.63542 2 5.5 2H3.96094C3.69011 2 3.4362 2.05469 3.19922 2.16406C2.96223 2.27344 2.7552 2.41927 2.57812 2.60156C2.40105 2.78386 2.26042 2.99609 2.15625 3.23828C2.05208 3.48047 2 3.73438 2 4V5.5C2 5.63542 1.95052 5.75261 1.85156 5.85156C1.75261 5.95052 1.63542 6 1.5 6C1.36458 6 1.2474 5.95052 1.14844 5.85156C1.04948 5.75261 1 5.63542 1 5.5ZM14 3.96094C14 3.69011 13.9453 3.4362 13.8359 3.19922C13.7266 2.96223 13.5807 2.7552 13.3984 2.57812C13.2161 2.40105 13.0039 2.26042 12.7617 2.15625C12.5195 2.05208 12.2656 2 12 2H10.5C10.3646 2 10.2474 1.95052 10.1484 1.85156C10.0495 1.75261 10 1.63542 10 1.5C10 1.36458 10.0495 1.2474 10.1484 1.14844C10.2474 1.04948 10.3646 1 10.5 1H12.0625C12.4531 1 12.8268 1.07943 13.1836 1.23828C13.5404 1.39714 13.8529 1.61067 14.1211 1.87891C14.3893 2.14714 14.6029 2.45964 14.7617 2.81641C14.9206 3.17317 15 3.54688 15 3.9375V5.5C15 5.63542 14.9505 5.75261 14.8516 5.85156C14.7526 5.95052 14.6354 6 14.5 6C14.3646 6 14.2474 5.95052 14.1484 5.85156C14.0495 5.75261 14 5.63542 14 5.5V3.96094ZM3.75 4.5C3.75 4.29167 3.82292 4.11458 3.96875 3.96875C4.11458 3.82292 4.29167 3.75 4.5 3.75C4.70833 3.75 4.88542 3.82292 5.03125 3.96875C5.17708 4.11458 5.25 4.29167 5.25 4.5C5.25 4.70833 5.17708 4.88542 5.03125 5.03125C4.88542 5.17708 4.70833 5.25 4.5 5.25C4.29167 5.25 4.11458 5.17708 3.96875 5.03125C3.82292 4.88542 3.75 4.70833 3.75 4.5ZM6 8V7.96094C6 7.69011 6.05469 7.4362 6.16406 7.19922C6.27344 6.96223 6.41927 6.7552 6.60156 6.57812C6.78386 6.40105 6.99609 6.26042 7.23828 6.15625C7.48047 6.05208 7.73438 6 8 6C8.27083 6 8.52864 6.05339 8.77344 6.16016C9.01823 6.26692 9.23047 6.41016 9.41016 6.58984C9.58984 6.76953 9.73308 6.98177 9.83984 7.22656C9.94661 7.47136 10 7.72917 10 8C10 8.27605 9.94661 8.53516 9.83984 8.77734C9.73308 9.01953 9.58984 9.23047 9.41016 9.41016C9.23047 9.58984 9.01823 9.73308 8.77344 9.83984C8.52864 9.94661 8.27083 10 8 10C7.72395 10 7.46484 9.94661 7.22266 9.83984C6.98047 9.73308 6.76953 9.58984 6.58984 9.41016C6.41016 9.23047 6.26692 9.01953 6.16016 8.77734C6.05339 8.53516 6 8.27605 6 8ZM9 8C9 7.86458 8.97395 7.73567 8.92188 7.61328C8.8698 7.49089 8.79817 7.38411 8.70703 7.29297C8.61589 7.20183 8.50911 7.1302 8.38672 7.07812C8.26433 7.02605 8.13542 7 8 7C7.85938 7 7.72917 7.02605 7.60938 7.07812C7.48958 7.1302 7.38411 7.20183 7.29297 7.29297C7.20183 7.38411 7.1302 7.48958 7.07812 7.60938C7.02605 7.72917 7 7.85938 7 8C7 8.14062 7.02605 8.27214 7.07812 8.39453C7.1302 8.51692 7.20052 8.62239 7.28906 8.71094C7.37761 8.79948 7.48308 8.8698 7.60547 8.92188C7.72786 8.97395 7.85938 9 8 9C8.14062 9 8.27083 8.97395 8.39062 8.92188C8.51042 8.8698 8.61589 8.79817 8.70703 8.70703C8.79817 8.61589 8.8698 8.51042 8.92188 8.39062C8.97395 8.27083 9 8.14062 9 8ZM3.9375 15C3.54688 15 3.17317 14.9206 2.81641 14.7617C2.45964 14.6029 2.14714 14.3893 1.87891 14.1211C1.61067 13.8529 1.39714 13.5404 1.23828 13.1836C1.07943 12.8268 1 12.4531 1 12.0625V10.5C1 10.3646 1.04948 10.2474 1.14844 10.1484C1.2474 10.0495 1.36458 10 1.5 10C1.63542 10 1.75261 10.0495 1.85156 10.1484C1.95052 10.2474 2 10.3646 2 10.5V12.0391C2 12.3099 2.05469 12.5638 2.16406 12.8008C2.27344 13.0378 2.41927 13.2448 2.60156 13.4219C2.78386 13.599 2.99609 13.7396 3.23828 13.8438C3.48047 13.9479 3.73438 14 4 14H5.5C5.63542 14 5.75261 14.0495 5.85156 14.1484C5.95052 14.2474 6 14.3646 6 14.5C6 14.6354 5.95052 14.7526 5.85156 14.8516C5.75261 14.9505 5.63542 15 5.5 15H3.9375ZM10 14.5C10 14.3646 10.0495 14.2474 10.1484 14.1484C10.2474 14.0495 10.3646 14 10.5 14H12.0391C12.3099 14 12.5638 13.9453 12.8008 13.8359C13.0378 13.7266 13.2448 13.5807 13.4219 13.3984C13.599 13.2161 13.7396 13.0039 13.8438 12.7617C13.9479 12.5195 14 12.2656 14 12V10.5C14 10.3646 14.0495 10.2474 14.1484 10.1484C14.2474 10.0495 14.3646 10 14.5 10C14.6354 10 14.7526 10.0495 14.8516 10.1484C14.9505 10.2474 15 10.3646 15 10.5V12.0625C15 12.4531 14.9206 12.8268 14.7617 13.1836C14.6029 13.5404 14.3893 13.8529 14.1211 14.1211C13.8529 14.3893 13.5404 14.6029 13.1836 14.7617C12.8268 14.9206 12.4531 15 12.0625 15H10.5C10.3646 15 10.2474 14.9505 10.1484 14.8516C10.0495 14.7526 10 14.6354 10 14.5Z" fill="context-fill" fill-opacity="context-fill-opacity"/>
</g>
<defs>
<clipPath id="clip0_165_7">
<rect width="14" height="14" transform="translate(1 1)"/>
</clipPath>
</defs>
</svg>

<svg xmlns="http://www.w3.org/2000/svg" width="16" height="16" fill="none" viewBox="0 0 16 16"><g clip-path="url(#a)"><path fill="context-fill" fill-opacity="context-fill-opacity" d="M1 5.5V3.938q0-.586.238-1.122a3.1 3.1 0 0 1 .64-.937 3.1 3.1 0 0 1 .938-.64Q3.351.998 3.938 1H5.5a.48.48 0 0 1 .352.148A.48.48 0 0 1 6 1.5a.48.48 0 0 1-.148.352A.48.48 0 0 1 5.5 2H3.96q-.405 0-.76.164a2.06 2.06 0 0 0-1.044 1.074A1.9 1.9 0 0 0 2 4v1.5a.48.48 0 0 1-.148.352A.48.48 0 0 1 1.5 6a.48.48 0 0 1-.352-.148A.48.48 0 0 1 1 5.5m13-1.54q0-.405-.164-.76a2.06 2.06 0 0 0-1.074-1.044A1.9 1.9 0 0 0 12 2h-1.5a.48.48 0 0 1-.352-.148A.48.48 0 0 1 10 1.5a.48.48 0 0 1 .148-.352A.48.48 0 0 1 10.5 1h1.563q.585 0 1.12.238.536.24.938.64.403.404.64.938.24.535.239 1.122V5.5a.48.48 0 0 1-.148.352A.48.48 0 0 1 14.5 6a.48.48 0 0 1-.352-.148A.48.48 0 0 1 14 5.5zM3.75 4.5q0-.312.219-.531A.72.72 0 0 1 4.5 3.75q.312 0 .531.219a.72.72 0 0 1 .219.531.72.72 0 0 1-.219.531.72.72 0 0 1-.531.219.72.72 0 0 1-.531-.219.72.72 0 0 1-.219-.531M6 8v-.04q0-.405.164-.76a2.06 2.06 0 0 1 1.074-1.044Q7.601 6 8 6q.406 0 .773.16t.637.43.43.637Q10 7.593 10 8q0 .414-.16.777t-.43.633-.637.43Q8.407 10 8 10q-.414 0-.777-.16a2.1 2.1 0 0 1-.633-.43q-.27-.27-.43-.633A1.9 1.9 0 0 1 6 8m3 0a1.004 1.004 0 0 0-1.39-.922 1.02 1.02 0 0 0-.532.531A1 1 0 0 0 7 8a1 1 0 0 0 .29.71A1 1 0 0 0 8 9a.97.97 0 0 0 .707-.293q.137-.137.215-.316A1 1 0 0 0 9 8m-5.062 7q-.586 0-1.122-.238a3.1 3.1 0 0 1-.937-.64 3.1 3.1 0 0 1-.64-.938A2.7 2.7 0 0 1 1 12.063V10.5a.48.48 0 0 1 .148-.352A.48.48 0 0 1 1.5 10a.48.48 0 0 1 .352.148A.48.48 0 0 1 2 10.5v1.54q0 .405.164.76a2.06 2.06 0 0 0 1.074 1.044Q3.601 14 4 14h1.5a.48.48 0 0 1 .352.148A.48.48 0 0 1 6 14.5a.48.48 0 0 1-.148.352A.48.48 0 0 1 5.5 15zM10 14.5a.48.48 0 0 1 .148-.352A.48.48 0 0 1 10.5 14h1.54q.405 0 .76-.164a2.06 2.06 0 0 0 1.044-1.074A1.9 1.9 0 0 0 14 12v-1.5a.48.48 0 0 1 .148-.352A.48.48 0 0 1 14.5 10a.48.48 0 0 1 .352.148.48.48 0 0 1 .148.352v1.563q0 .585-.238 1.12-.24.536-.64.938-.405.403-.938.64-.535.24-1.121.239H10.5a.48.48 0 0 1-.352-.148A.48.48 0 0 1 10 14.5"/></g><defs><clipPath id="a"><path d="M1 1h14v14H1z"/></clipPath></defs></svg>
